symbols/web/text_rotation_down/materialsymbolsrounded/text_rotation_down_48px.svg

<svg xmlns="http://www.w3.org/2000/svg" height="48" width="48"><path d="M11.3 41.4q-.3 0-.55-.1-.25-.1-.5-.35L6.1 36.9q-.55-.55-.525-1.1.025-.55.525-1.05.45-.45 1.075-.45t1.075.45L9.8 36.3V9.5q0-.65.425-1.075Q10.65 8 11.3 8q.65 0 1.075.425.425.425.425 1.075v26.8l1.55-1.55q.45-.45 1.05-.45.6 0 1.05.45.45.45.45 1.05 0 .6-.45 1.05l-4.1 4.1q-.25.25-.5.35-.25.1-.55.1Zm10.5-8.2q-.75.25-1.275-.1Q20 32.75 20 31.9q0-.35.225-.65.225-.3.525-.4l4.65-1.7v-10.3l-4.65-1.65q-.3-.1-.525-.45-.225-.35-.225-.7 0-.8.525-1.125.525-.325 1.275-.075l18.65 6.95q.65.25 1.1.9.45.65.45 1.35 0 .7-.45 1.325t-1.1.875Zm5.95-4.9 11.65-4.2v-.2l-11.65-4.2Z"/></svg>

<svg xmlns="http://www.w3.org/2000/svg" height="48" width="48"><path d="M11.3 41.4Q11 41.4 10.75 41.3Q10.5 41.2 10.25 40.95L6.1 36.9Q5.55 36.35 5.575 35.8Q5.6 35.25 6.1 34.75Q6.55 34.3 7.175 34.3Q7.8 34.3 8.25 34.75L9.8 36.3V9.5Q9.8 8.85 10.225 8.425Q10.65 8 11.3 8Q11.95 8 12.375 8.425Q12.8 8.85 12.8 9.5V36.3L14.35 34.75Q14.8 34.3 15.4 34.3Q16 34.3 16.45 34.75Q16.9 35.2 16.9 35.8Q16.9 36.4 16.45 36.85L12.35 40.95Q12.1 41.2 11.85 41.3Q11.6 41.4 11.3 41.4ZM21.8 33.2Q21.05 33.45 20.525 33.1Q20 32.75 20 31.9Q20 31.55 20.225 31.25Q20.45 30.95 20.75 30.85L25.4 29.15V18.85L20.75 17.2Q20.45 17.1 20.225 16.75Q20 16.4 20 16.05Q20 15.25 20.525 14.925Q21.05 14.6 21.8 14.85L40.45 21.8Q41.1 22.05 41.55 22.7Q42 23.35 42 24.05Q42 24.75 41.55 25.375Q41.1 26 40.45 26.25ZM27.75 28.3 39.4 24.1V23.9L27.75 19.7Z"/></svg>
